svg/transport/flight_takeoff_line.svg

<?xml version="1.0" encoding="UTF-8"?>
<svg width="24px" height="24px" viewBox="0 0 24 24" version="1.1" xmlns="http://www.w3.org/2000/svg" xmlns:xlink="http://www.w3.org/1999/xlink">
    <title>flight_takeoff_line</title>
    <g id="页面-1" stroke="none" stroke-width="1" fill="none" fill-rule="evenodd">
        <g id="Transport" transform="translate(-624.000000, 0.000000)">
            <g id="flight_takeoff_line" transform="translate(624.000000, 0.000000)">
                 <path d="M24,0 L24,24 L0,24 L0,0 L24,0 Z M12.5934901,23.257841 L12.5819402,23.2595131 L12.5108777,23.2950439 L12.4918791,23.2987469 L12.4918791,23.2987469 L12.4767152,23.2950439 L12.4056548,23.2595131 C12.3958229,23.2563662 12.3870493,23.2590235 12.3821421,23.2649074 L12.3780323,23.275831 L12.360941,23.7031097 L12.3658947,23.7234994 L12.3769048,23.7357139 L12.4804777,23.8096931 L12.4953491,23.8136134 L12.4953491,23.8136134 L12.5071152,23.8096931 L12.6106902,23.7357139 L12.6232938,23.7196733 L12.6232938,23.7196733 L12.6266527,23.7031097 L12.609561,23.275831 C12.6075724,23.2657013 12.6010112,23.2592993 12.5934901,23.257841 L12.5934901,23.257841 Z M12.8583906,23.1452862 L12.8445485,23.1473072 L12.6598443,23.2396597 L12.6498822,23.2499052 L12.6498822,23.2499052 L12.6471943,23.2611114 L12.6650943,23.6906389 L12.6699349,23.7034178 L12.6699349,23.7034178 L12.678386,23.7104931 L12.8793402,23.8032389 C12.8914285,23.8068999 12.9022333,23.8029875 12.9078286,23.7952264 L12.9118235,23.7811639 L12.8776777,23.1665331 C12.8752882,23.1545897 12.8674102,23.1470016 12.8583906,23.1452862 L12.8583906,23.1452862 Z M12.1430473,23.1473072 C12.1332178,23.1423925 12.1221763,23.1452606 12.1156365,23.1525954 L12.1099173,23.1665331 L12.0757714,23.7811639 C12.0751323,23.7926639 12.0828099,23.8018602 12.0926481,23.8045676 L12.108256,23.8032389 L12.3092106,23.7104931 L12.3186497,23.7024347 L12.3186497,23.7024347 L12.3225043,23.6906389 L12.340401,23.2611114 L12.337245,23.2485176 L12.337245,23.2485176 L12.3277531,23.2396597 L12.1430473,23.1473072 Z" id="MingCute" fill-rule="nonzero"></path>
                <path d="M20.9999,20 C21.5522,20 21.9999,20.4477 21.9999,21 C21.9999,21.51285 21.613873,21.9355092 21.1165239,21.9932725 L20.9999,22 L2.99988,22 C2.44759,22 1.99988,21.5523 1.99988,21 C1.99988,20.48715 2.38591566,20.0644908 2.8832579,20.0067275 L2.99988,20 L20.9999,20 Z M7.26152,3.77234 C7.60270875,3.68092 7.96415594,3.73859781 8.25798121,3.92633426 L8.37951,4.0147 L14.564,9.10597 L18.3962,8.41394 C19.7562,8.16834 21.1459,8.64954 22.0628,9.68357 C22.5196,10.1987 22.7144,10.8812 22.4884,11.5492 C22.1394625,12.580825 21.3287477,13.3849891 20.3041894,13.729249 L20.0965,13.7919 L5.02028,17.8315 C4.629257,17.93626 4.216283,17.817298 3.94116938,17.5298722 L3.85479,17.4279 L0.678249,13.1819 C0.275408529,12.6434529 0.504260903,11.8823125 1.10803202,11.640394 L1.22557,11.6013 L3.49688,10.9927 C3.85572444,10.8966111 4.23617877,10.9655 4.53678409,11.1757683 L4.64557,11.2612 L5.44206,11.9612 L7.83692,11.0255 L3.97034,6.11174 C3.54687,5.57357667 3.77335565,4.79203787 4.38986791,4.54876405 L4.50266,4.51158 L7.26152,3.77234 Z M7.40635,5.80409 L6.47052,6.05484 L10.2339,10.8375 C10.6268063,11.3368125 10.463277,12.0589277 9.92111759,12.3504338 L9.80769,12.4028 L5.60866,14.0433 C5.29604667,14.1654333 4.9460763,14.123537 4.67296914,13.9376276 L4.57438,13.8612 L3.6268,13.0285 L3.15564,13.1547 L5.09121,15.7419 L19.5789,11.86 C20.0227,11.7411 20.3838,11.4227 20.5587,11.0018 C20.142625,10.53815 19.5333701,10.3022153 18.9191086,10.3592364 L18.7516,10.3821 L14.4682,11.1556 C14.218,11.2007714 13.9615551,11.149698 13.7491184,11.0154781 L13.6468,10.9415 L7.40635,5.80409 Z" id="形状" fill="#09244B"></path>
            </g>
        </g>
    </g>
</svg>

<svg xmlns="http://www.w3.org/2000/svg" width="24" height="24"><g fill="none" fill-rule="evenodd"><path d="M24 0v24H0V0h24ZM12.593 23.258l-.011.002-.071.035-.02.004-.014-.004-.071-.035c-.01-.004-.019-.001-.024.005l-.004.01-.017.428.005.02.01.013.104.074.015.004.012-.004.104-.074.012-.016.004-.017-.017-.427c-.002-.01-.009-.017-.017-.018Zm.265-.113-.013.002-.185.093-.01.01-.003.011.018.43.005.012.008.007.201.093c.012.004.023 0 .029-.008l.004-.014-.034-.614c-.003-.012-.01-.02-.02-.022Zm-.715.002a.023.023 0 0 0-.027.006l-.006.014-.034.614c0 .012.007.02.017.024l.015-.002.201-.093.01-.008.004-.011.017-.43-.003-.012-.01-.01-.184-.092Z"/><path fill="#09244B" d="M21 20a1 1 0 0 1 .117 1.993L21 22H3a1 1 0 0 1-.117-1.993L3 20h18ZM7.262 3.772a1.25 1.25 0 0 1 .996.154l.122.089 6.184 5.091 3.832-.692a3.96 3.96 0 0 1 3.667 1.27c.457.515.651 1.197.425 1.865a3.474 3.474 0 0 1-2.184 2.18l-.207.063-15.077 4.04a1.1 1.1 0 0 1-1.079-.302l-.086-.102-3.177-4.246a1.01 1.01 0 0 1 .43-1.542l.118-.039 2.27-.608a1.25 1.25 0 0 1 1.04.183l.11.085.796.7 2.395-.936L3.97 6.112a1.01 1.01 0 0 1 .42-1.563l.113-.037 2.759-.74Zm.144 2.032-.935.25 3.763 4.784c.393.499.23 1.22-.313 1.512l-.113.053-4.2 1.64a1.01 1.01 0 0 1-.935-.105l-.099-.077-.947-.833-.471.127 1.935 2.587L19.58 11.86c.444-.119.805-.437.98-.858a1.96 1.96 0 0 0-1.64-.643l-.167.023-4.284.774a1.01 1.01 0 0 1-.719-.14l-.102-.075-6.24-5.137Z"/></g></svg>
